X:1
T:Whosoever Believeth
T:Whosoever Believeth
T:William Warren Bentley
T:Frederick Denison, 1878
T:Public Domain Courtesy of the Cyber Hymnal™
C:William Warren Bentley
Z:Public Domain
Z:Courtesy of the Cyber Hymnal™
%%score 1 ( 2 3 )
L:1/8
Q:1/4=100
M:6/8
K:D
V:1 treble 
V:2 bass 
V:3 bass 
V:1
 [FA] | [FA]2 [FA] [GB]2 [FA] | [FA]3 [CE]2 [DF] | [FA]2 [FA] [EG]2 [CE] | [DF]3- [DF]2 [FA] | %5
w: 1.~From|Cal- vary’s mount- ain|sound- ing, What|lov- ing words we|hear, * The|
w: 2.~Oh,|seek this great sal-|va- tion, And|cast out ev- ery|sin, * The|
w: 3.~“Who-|e’er My Word be-|liev- eth,” We|hear the Sav- ior|say, * “A|
w: 4.~O|bro- ther, come and|trust Him, Oh,|come to Him to-|day; * He’s|
 [FA]2 [FA] [GB]2 [FA] | [FA]3 [Fd]2 [Fd] | [Ec]2 [CA] [Ec]2 [DB] | [CA]3- [CA]2 z || %9
w: love of God a-|bound- ing, Dis-|pel- ling all our|fear. *|
w: soul’s e- man- ci-|pa- tion, By|power di- vine with-|in. *|
w: par- don full re-|ceiv- eth, All|sins are washed a-|way.” *|
w: wai- ting to re-|ceive you, Why|long- er then de-|lay? *|
"^Refrain" [Ge]3 [Ge][Fd][Ec] | [Fd]3 [FA]3 | [Ge]3 [Ge][Fd][Ec] | [Fd]3 [FA]3 | %13
w: ||||
w: ||||
w: ||||
w: ||||
 [GB]2 [GB] [Gd][Gc][GB] | [FA]3 [Fd]2 [Fd] | [Ge]2 [Ge] [Fd]2 [Ec] | [Fd]3- [Fd]2 |] %17
w: ||||
w: ||||
w: ||||
w: ||||
V:2
 [D,D] | [D,D]2 [D,D] [D,D]2 [D,D] | [D,D]3 [D,A,]2 [D,A,] | [A,,A,]2 [A,,A,] [A,,A,]2 [A,,A,] | %4
w: ~|~ ~ ~ ~|~ ~ ~|~ ~ ~ ~|
 [D,A,]3- [D,A,]2 [D,D] | [D,D]2 [D,D] [D,D]2 [D,D] | [D,D]3 [D,A,]2 [D,A,] | %7
w: ~ * ~|~ ~ ~ ~|~ ~ ~|
 [E,A,]2 [E,A,] [E,^G,]2 [E,G,] | [A,,A,]3- [A,,A,]2 z || [A,,A,]3 [A,,A,][A,,A,][A,,A,] | %10
w: ~ ~ ~ ~|~ *|O bro- ther, be-|
 [D,A,]3 [D,D]3 | [A,,A,]3 [A,,A,][A,,A,][A,,A,] | [D,A,]3 [D,D]3 | [G,D]2 [G,D] [G,B,][G,C][G,D] | %14
w: lieve it!|O bro- ther, re-|ceive it!|Who- so- ev- er be-|
 [D,D]3 [D,D]2 [D,D] | [G,B,]2 [G,B,] A,2 [A,,A,] | [D,A,]3- [D,A,]2 |] %17
w: liev- eth Hath|ev- er- last- ing|life! *|
V:3
 x | x6 | x6 | x6 | x6 | x6 | x6 | x6 | x6 || x6 | x6 | x6 | x6 | x6 | x6 | x3 A,2 x | x5 |] %17

